apps/web/public/images/services/aidants-connect.svg

<svg width="374" height="148" viewBox="0 0 374 148" fill="none" xmlns="http://www.w3.org/2000/svg">
<path d="M43.6499 67.9061H18.0585L14.5498 75.9724H0.8125L26.6815 12.9139H35.1459L60.9158 75.9724H47.1784L43.6499 67.9061ZM30.8641 33.1091L22.5187 57.4847H39.1898L30.8641 33.1091Z" fill="#1B4991"/>
<path d="M81.3737 75.9724H68.5879V29.5372H81.3737V75.9724Z" fill="#1B4991"/>
<path d="M140.981 5.59344V75.9724H129.226V70.2416C125.995 74.6575 120.603 77.0911 114.161 77.0911C100.899 77.0911 91.4238 66.7678 91.4238 52.7941C91.4238 38.8203 100.899 28.497 114.161 28.497C120.028 28.497 124.865 30.4596 128.195 34.0316V5.59344H140.981ZM128.374 52.7941C128.374 43.982 122.407 39.939 116.52 39.939C109.879 39.939 104.388 44.8259 104.388 52.6959C104.388 60.5856 109.78 65.551 116.52 65.551C122.407 65.551 128.374 61.7043 128.374 52.7941Z" fill="#1B4991"/>
<path d="M193.017 48.3782V75.9724H181.262V71.478C177.951 74.9518 173.015 77.1107 166.95 77.1107C156.721 77.1107 150.734 71.1051 150.734 63.2155C150.734 54.7763 157.653 49.7128 168.456 49.7128H180.211V47.652C180.211 42.5885 177.277 39.4876 171.489 39.4876C166.474 39.4876 162.965 41.8427 159.08 45.8661L152.439 38.0745C157.93 31.5979 164.67 28.497 172.916 28.497C184.87 28.497 193.017 35.1502 193.017 48.3782ZM180.211 58.623V58.0538H170.161C165.998 58.0538 163.619 59.6435 163.619 62.7445C163.619 65.9435 166.375 67.808 170.339 67.808C175.771 67.808 180.211 64.0594 180.211 58.623Z" fill="#1B4991"/>
<path d="M248.461 47.1614V75.9724H235.754V48.8492C235.754 43.4913 232.245 39.8409 227.032 39.8409C221.819 39.8409 218.132 43.4913 218.132 48.8492V75.9724H205.346V29.5372H217.101V33.7568C220.332 30.5577 225.07 28.497 230.838 28.497C241.82 28.497 248.461 35.9942 248.461 47.1614Z" fill="#1B4991"/>
<path d="M290.903 65.3744V75.9724C288.246 76.6201 285.412 77.0911 282.081 77.0911C270.525 77.0911 263.309 71.5566 263.309 59.6436V40.2138H255.915V29.5176H263.309V17.8008H276.095V29.5372H289.356V40.2334H276.095V58.5249C276.095 63.8632 278.929 65.7473 284.817 65.7473C286.363 65.7473 288.445 65.551 290.903 65.3744Z" fill="#1B4991"/>
<path d="M332.987 35.4447L326.544 43.2362C323.511 40.4297 319.824 38.8204 316.018 38.8204C312.985 38.8204 311.003 39.8605 311.003 42.0979C311.003 43.982 312.51 44.9044 315.939 46.2194L320.478 48.1035C328.903 51.4792 333.661 55.0511 333.661 62.2735C333.661 71.851 325.612 77.0911 315.364 77.0911C307.019 77.0911 300.1 73.5192 295.938 68.0828L302.38 60.3894C306.166 64.2361 310.527 66.6697 315.562 66.6697C318.793 66.6697 321.529 65.4529 321.529 62.823C321.529 60.6641 319.547 59.8202 316.692 58.6034L311.677 56.5427C303.708 53.3436 298.891 49.6932 298.891 42.3727C298.891 33.4624 306.186 28.3989 316.137 28.3989C322.936 28.3989 328.725 30.754 332.987 35.4447Z" fill="#1B4991"/>
<path d="M60.9358 99.19L51.2622 105.941C47.0994 99.3667 41.212 95.52 33.3422 95.52C21.6863 95.52 13.1625 103.959 13.1625 115.97C13.1625 127.883 21.6863 136.244 33.3422 136.244C41.212 136.244 47.0796 132.397 51.2622 125.823L60.9358 132.574C55.544 142.053 45.3946 147.961 33.2629 147.961C14.6888 147.98 0 134.105 0 115.892C0 97.6985 14.6888 83.8032 33.3621 83.8032C45.3946 83.8032 55.4449 89.7107 60.9358 99.19Z" fill="#1B4991"/>
<path d="M117.708 123.585C117.708 137.382 106.33 147.882 92.4143 147.882C78.4986 147.882 67.3779 137.382 67.3779 123.585C67.3779 109.886 78.459 99.3863 92.4936 99.3863C106.33 99.3863 117.708 109.886 117.708 123.585ZM80.362 123.683C80.362 131.004 85.3772 136.264 92.4936 136.264C99.4118 136.264 104.625 130.906 104.625 123.683C104.625 116.363 99.4118 110.926 92.4936 110.926C85.3772 110.926 80.362 116.363 80.362 123.683Z" fill="#1B4991"/>
<path d="M171.27 118.051V146.862H158.564V119.739C158.564 114.381 155.055 110.73 149.842 110.73C144.628 110.73 140.941 114.381 140.941 119.739V146.862H128.155V100.407H139.91V104.626C143.141 101.427 147.879 99.3667 153.648 99.3667C164.63 99.3863 171.27 106.883 171.27 118.051Z" fill="#1B4991"/>
<path d="M225.308 118.051V146.862H212.602V119.739C212.602 114.381 209.093 110.73 203.88 110.73C198.666 110.73 194.979 114.381 194.979 119.739V146.862H182.193V100.407H193.948V104.626C197.18 101.427 201.917 99.3667 207.686 99.3667C218.687 99.3863 225.308 106.883 225.308 118.051Z" fill="#1B4991"/>
<path d="M280.753 127.903H247.866C249.373 133.81 254.21 137.108 261.049 137.108C266.163 137.108 270.346 135.322 274.132 132.417L279.444 141.052C274.132 145.468 267.888 148 260.672 148C245.785 148 234.981 137.402 234.981 123.703C234.981 110.004 245.686 99.4059 259.522 99.4059C272.705 99.4059 281.605 108.983 281.605 120.995C281.605 123.585 281.129 126.313 280.753 127.903ZM247.866 118.993H269.196C269.097 113.085 264.458 109.611 259.047 109.611C253.655 109.611 249.294 113.183 247.866 118.993Z" fill="#1B4991"/>
<path d="M334.394 110.828L325.494 117.678C322.837 113.733 319.428 110.926 314.214 110.926C306.919 110.926 301.904 116.363 301.904 123.585C301.904 130.906 306.919 136.342 314.214 136.342C319.329 136.342 322.738 133.536 325.494 129.689L334.394 136.44C330.509 143.388 323.313 147.98 314.016 147.98C299.981 147.98 288.9 137.382 288.9 123.585C288.9 109.886 299.981 99.3863 314.016 99.3863C323.392 99.3863 330.509 103.881 334.394 110.828Z" fill="#1B4991"/>
<path d="M374 136.264V146.862C371.344 147.509 368.509 147.98 365.179 147.98C353.622 147.98 346.407 142.446 346.407 130.533V111.103H339.013V100.407H346.407V88.6705H359.192V100.407H372.454V111.103H359.192V129.395C359.192 134.733 362.027 136.617 367.915 136.617C369.461 136.637 371.542 136.44 374 136.264Z" fill="#1B4991"/>
<path d="M65.4949 3.80745C68.0521 1.27569 71.4022 0 74.7721 0H100.661C104.011 0 107.361 1.25607 109.918 3.78783C115.033 8.85134 115.033 17.055 109.918 22.1185C107.341 24.6699 103.951 25.926 100.562 25.9064H74.8514C71.4616 25.926 68.0917 24.6699 65.4949 22.1185C60.3806 17.0747 60.3806 8.85135 65.4949 3.80745Z" fill="url(#paint0_linear_223_218)"/>
<path d="M100.661 25.9064C107.887 25.9064 113.744 20.107 113.744 12.9532C113.744 5.79934 107.887 0 100.661 0C93.4357 0 87.5781 5.79934 87.5781 12.9532C87.5781 20.107 93.4357 25.9064 100.661 25.9064Z" fill="#EF4056"/>
<defs>
<linearGradient id="paint0_linear_223_218" x1="61.9534" y1="12.9612" x2="113.234" y2="12.9612" gradientUnits="userSpaceOnUse">
<stop stop-color="#F38192" stop-opacity="0"/>
<stop offset="1" stop-color="#F05B89"/>
</linearGradient>
</defs>
</svg>

<svg width="374" height="148" viewBox="0 0 374 148" fill="none" xmlns="http://www.w3.org/2000/svg"><path d="M43.65 67.906H18.059l-3.51 8.066H.814l25.869-63.058h8.464l25.77 63.058H47.178zM30.864 33.11 22.52 57.485h16.67zm50.51 42.862H68.588V29.537h12.786zm59.607-70.379v70.38h-11.755v-5.731c-3.231 4.415-8.623 6.85-15.065 6.85-13.262 0-22.737-10.324-22.737-24.298s9.475-24.297 22.737-24.297c5.867 0 10.704 1.963 14.034 5.535V5.593zm-12.607 47.201c0-8.812-5.967-12.855-11.854-12.855-6.641 0-12.132 4.887-12.132 12.757 0 7.89 5.392 12.855 12.132 12.855 5.887 0 11.854-3.847 11.854-12.757m64.643-4.416v27.594h-11.755v-4.494c-3.311 3.474-8.247 5.633-14.312 5.633-10.229 0-16.216-6.006-16.216-13.896 0-8.439 6.919-13.502 17.722-13.502h11.755v-2.061c0-5.063-2.934-8.164-8.722-8.164-5.015 0-8.524 2.355-12.409 6.378l-6.641-7.791c5.491-6.477 12.231-9.578 20.477-9.578 11.954 0 20.101 6.653 20.101 19.881m-12.806 10.245v-.57h-10.05c-4.163 0-6.542 1.59-6.542 4.692 0 3.199 2.756 5.063 6.72 5.063 5.432 0 9.872-3.749 9.872-9.185m68.25-11.462v28.811h-12.707V48.85c0-5.358-3.509-9.008-8.722-9.008s-8.9 3.65-8.9 9.008v27.123h-12.786V29.537h11.755v4.22c3.231-3.2 7.969-5.26 13.737-5.26 10.982 0 17.623 7.497 17.623 18.664m42.442 18.213v10.598c-2.657.648-5.491 1.12-8.822 1.12-11.556 0-18.772-5.535-18.772-17.448v-19.43h-7.394V29.518h7.394V17.8h12.786v11.736h13.261v10.696h-13.261v18.292c0 5.338 2.834 7.222 8.722 7.222 1.546 0 3.628-.196 6.086-.373m42.084-29.928-6.443 7.791c-3.033-2.806-6.72-4.416-10.526-4.416-3.033 0-5.015 1.04-5.015 3.278 0 1.884 1.507 2.806 4.936 4.121l4.539 1.884c8.425 3.376 13.183 6.948 13.183 14.17 0 9.578-8.049 14.818-18.297 14.818-8.345 0-15.264-3.572-19.426-9.008l6.442-7.694c3.786 3.847 8.147 6.28 13.182 6.28 3.231 0 5.967-1.216 5.967-3.846 0-2.159-1.982-3.003-4.837-4.22l-5.015-2.06c-7.969-3.2-12.786-6.85-12.786-14.17 0-8.91 7.295-13.974 17.246-13.974 6.799 0 12.588 2.355 16.85 7.046M60.936 99.19l-9.674 6.751C47.1 99.367 41.212 95.52 33.342 95.52c-11.656 0-20.18 8.439-20.18 20.45 0 11.913 8.524 20.274 20.18 20.274 7.87 0 13.738-3.847 17.92-10.421l9.674 6.751c-5.392 9.479-15.541 15.387-27.673 15.387C14.689 147.98 0 134.105 0 115.892c0-18.193 14.689-32.089 33.362-32.089 12.033 0 22.083 5.908 27.574 15.387m56.772 24.395c0 13.797-11.378 24.297-25.294 24.297-13.915 0-25.036-10.5-25.036-24.297 0-13.699 11.081-24.199 25.116-24.199 13.836 0 25.214 10.5 25.214 24.199m-37.346.098c0 7.321 5.015 12.581 12.132 12.581 6.918 0 12.131-5.358 12.131-12.581 0-7.32-5.213-12.757-12.131-12.757-7.117 0-12.132 5.437-12.132 12.757m90.908-5.632v28.811h-12.706v-27.123c0-5.358-3.509-9.009-8.722-9.009-5.214 0-8.901 3.651-8.901 9.009v27.123h-12.786v-46.455h11.755v4.219c3.231-3.199 7.969-5.26 13.738-5.26 10.982.02 17.622 7.517 17.622 18.685m54.038 0v28.811h-12.706v-27.123c0-5.358-3.509-9.009-8.722-9.009-5.214 0-8.901 3.651-8.901 9.009v27.123h-12.786v-46.455h11.755v4.219c3.232-3.199 7.969-5.26 13.738-5.26 11.001.02 17.622 7.517 17.622 18.685m55.445 9.852h-32.887c1.507 5.907 6.344 9.205 13.183 9.205 5.114 0 9.297-1.786 13.083-4.691l5.312 8.635c-5.312 4.416-11.556 6.948-18.772 6.948-14.887 0-25.691-10.598-25.691-24.297s10.705-24.297 24.541-24.297c13.183 0 22.083 9.577 22.083 21.589 0 2.59-.476 5.318-.852 6.908m-32.887-8.91h21.33c-.099-5.908-4.738-9.382-10.149-9.382-5.392 0-9.753 3.572-11.181 9.382m86.528-8.165-8.9 6.85c-2.657-3.945-6.066-6.752-11.28-6.752-7.295 0-12.31 5.437-12.31 12.659 0 7.321 5.015 12.757 12.31 12.757 5.115 0 8.524-2.806 11.28-6.653l8.9 6.751c-3.885 6.948-11.081 11.54-20.378 11.54-14.035 0-25.116-10.598-25.116-24.395 0-13.699 11.081-24.199 25.116-24.199 9.376 0 16.493 4.495 20.378 11.442M374 136.264v10.598c-2.656.647-5.491 1.118-8.821 1.118-11.557 0-18.772-5.534-18.772-17.447v-19.43h-7.394v-10.696h7.394V88.671h12.785v11.736h13.262v10.696h-13.262v18.292c0 5.338 2.835 7.222 8.723 7.222 1.546.02 3.627-.177 6.085-.353" fill="#1B4991"/><path d="M65.495 3.807A13.14 13.14 0 0 1 74.772 0h25.889c3.35 0 6.7 1.256 9.257 3.788a12.867 12.867 0 0 1 0 18.33c-2.577 2.552-5.967 3.808-9.356 3.788h-25.71a13.17 13.17 0 0 1-9.357-3.787 12.845 12.845 0 0 1 0-18.312" fill="url(#a)"/><path d="M100.661 25.906c7.226 0 13.083-5.799 13.083-12.953S107.887 0 100.661 0c-7.225 0-13.083 5.8-13.083 12.953 0 7.154 5.858 12.953 13.083 12.953" fill="#EF4056"/><defs><linearGradient id="a" x1="61.953" y1="12.961" x2="113.234" y2="12.961" gradientUnits="userSpaceOnUse"><stop stop-color="#F38192" stop-opacity="0"/><stop offset="1" stop-color="#F05B89"/></linearGradient></defs></svg>
